src/images_karasa_jaga_svg/cmd/32/symbolshapes.flower.svg

<svg height="32" viewBox="0 0 32 32" width="32" xmlns="http://www.w3.org/2000/svg" xmlns:xlink="http://www.w3.org/1999/xlink"><linearGradient id="a" gradientUnits="userSpaceOnUse" x1="71.321404" x2="72.23735" y1="128" y2="0"><stop offset="0" stop-color="#fff"/><stop offset=".55595475" stop-color="#fff"/><stop offset=".83333331" stop-color="#f1f1f1"/><stop offset=".89999998" stop-color="#eaeaea"/><stop offset="1" stop-color="#dfdfdf"/></linearGradient><path d="m64 7.6914062c-11.216296-.0004087-20.309003 9.0922978-20.308594 20.3085938.0038.299022.01423.597923.03125.896484-.238189-.161365-.47978-.31765-.724609-.46875-9.713457-5.60857-22.134436-2.280335-27.742188 7.433594-5.6072391 9.713022-2.279163 22.132537 7.433594 27.740234.261198.145798.525586.285805.792969.419922-.259282.126034-.51585.257574-.769531.394532-9.713929 5.607752-13.0421635 18.02873-7.433594 27.742187 5.607752 9.713927 18.02873 13.042167 27.742187 7.433594.256733-.153242.51005-.312135.759766-.476563-.02045.287423-.03477.575249-.04297.863282-.000409 11.216294 9.092298 20.309004 20.308594 20.308594 11.215533-.00067 20.30705-9.09306 20.306641-20.308594-.0038-.299022-.01423-.597923-.03125-.896485.238833.161389.481075.317674.726562.46875 9.713021 5.607239 22.132533 2.279159 27.740233-7.433593 5.60724-9.713021 2.27917-22.132535-7.43359-27.740235-.26055-.145772-.52429-.28578-.79102-.419922.25928-.126033.51585-.257573.76953-.394531 9.71322-5.608422 13.04054-18.029242 7.43164-27.742188-5.60769-9.712754-18.02721-13.040829-27.74023-7.433593-.256733.153242-.51005.312134-.759766.476562.020448-.287423.034773-.575248.04297-.863281.000409-11.216296-9.092298-20.3090025-20.308594-20.3085938zm0 36.2890628a20.019171 20.019171 0 0 1 20.019531 20.019531 20.019171 20.019171 0 0 1 -20.019531 20.019531 20.019171 20.019171 0 0 1 -20.019531-20.019531 20.019171 20.019171 0 0 1 20.019531-20.019531z" style="stroke:#507dbe;stroke-width:4;stroke-linecap:square;stroke-linejoin:bevel;stroke-opacity:.729412;fill:url(#a)" transform="scale(.25)"/></svg>

<?xml version="1.0" encoding="UTF-8" standalone="no"?>
<!-- Created with Inkscape (http://www.inkscape.org/) -->

<svg
   xmlns:dc="http://purl.org/dc/elements/1.1/"
   xmlns:cc="http://creativecommons.org/ns#"
   xmlns:rdf="http://www.w3.org/1999/02/22-rdf-syntax-ns#"
   xmlns:svg="http://www.w3.org/2000/svg"
   xmlns="http://www.w3.org/2000/svg"
   xmlns:xlink="http://www.w3.org/1999/xlink"
   xmlns:sodipodi="http://sodipodi.sourceforge.net/DTD/sodipodi-0.dtd"
   xmlns:inkscape="http://www.inkscape.org/namespaces/inkscape"
   version="1.1"
   id="svg2"
   width="128"
   height="128"
   viewBox="0 0 128 128"
   sodipodi:docname="symbolshapes.flower.svg"
   inkscape:export-filename="/home/rizmut/Dokumen/Rizmut/Github/libreoffice-style-karasa-jaga/build/images_karasa_jaga/cmd/32/symbolshapes.flower.png"
   inkscape:export-xdpi="24"
   inkscape:export-ydpi="24"
   inkscape:version="0.92.3 (unknown)">
  <metadata
     id="metadata8">
    <rdf:RDF>
      <cc:Work
         rdf:about="">
        <dc:format>image/svg+xml</dc:format>
        <dc:type
           rdf:resource="http://purl.org/dc/dcmitype/StillImage" />
        <dc:title />
      </cc:Work>
    </rdf:RDF>
  </metadata>
  <defs
     id="defs6">
    <linearGradient
       inkscape:collect="always"
       xlink:href="#linearGradient3369"
       id="linearGradient2180"
       x1="71.321404"
       y1="128"
       x2="72.23735"
       y2="0"
       gradientUnits="userSpaceOnUse" />
    <linearGradient
       id="linearGradient3369">
      <stop
         id="stop3372"
         offset="0"
         style="stop-color:#ffffff;stop-opacity:1;" />
      <stop
         style="stop-color:#ffffff;stop-opacity:1;"
         offset="0.55595475"
         id="stop3374" />
      <stop
         style="stop-color:#f1f1f1;stop-opacity:1;"
         offset="0.83333331"
         id="stop3376" />
      <stop
         id="stop3378"
         offset="0.89999998"
         style="stop-color:#eaeaea;stop-opacity:1;" />
      <stop
         id="stop3384"
         offset="1"
         style="stop-color:#dfdfdf;stop-opacity:1;" />
    </linearGradient>
  </defs>
  <sodipodi:namedview
     pagecolor="#ffffff"
     bordercolor="#666666"
     borderopacity="1"
     objecttolerance="10"
     gridtolerance="10"
     guidetolerance="10"
     inkscape:pageopacity="0"
     inkscape:pageshadow="2"
     inkscape:window-width="1366"
     inkscape:window-height="706"
     id="namedview4"
     showgrid="false"
     inkscape:snap-page="true"
     inkscape:snap-global="true"
     inkscape:zoom="1.2247144"
     inkscape:cx="46.218035"
     inkscape:cy="87.32343"
     inkscape:window-x="0"
     inkscape:window-y="0"
     inkscape:window-maximized="1"
     inkscape:current-layer="svg2">
    <inkscape:grid
       type="xygrid"
       id="grid837" />
  </sodipodi:namedview>
  <path
     style="opacity:1;fill:url(#linearGradient2180);fill-opacity:1;stroke:#507dbe;stroke-width:4;stroke-linecap:square;stroke-linejoin:bevel;stroke-miterlimit:4;stroke-dasharray:none;stroke-dashoffset:0;stroke-opacity:0.72941178"
     d="M 64 7.6914062 C 52.783704 7.6909975 43.690997 16.783704 43.691406 28 C 43.695206 28.299022 43.705636 28.597923 43.722656 28.896484 C 43.484467 28.735119 43.242876 28.578834 42.998047 28.427734 C 33.28459 22.819164 20.863611 26.147399 15.255859 35.861328 C 9.6486199 45.57435 12.976696 57.993865 22.689453 63.601562 C 22.950651 63.74736 23.215039 63.887367 23.482422 64.021484 C 23.22314 64.147518 22.966572 64.279058 22.712891 64.416016 C 12.998962 70.023768 9.6707275 82.444746 15.279297 92.158203 C 20.887049 101.87213 33.308027 105.20037 43.021484 99.591797 C 43.278217 99.438555 43.531534 99.279662 43.78125 99.115234 C 43.7608 99.402657 43.746481 99.690483 43.738281 99.978516 C 43.737872 111.19481 52.830579 120.28752 64.046875 120.28711 C 75.262408 120.28644 84.353925 111.19405 84.353516 99.978516 C 84.349716 99.679494 84.339286 99.380593 84.322266 99.082031 C 84.561099 99.24342 84.803341 99.399705 85.048828 99.550781 C 94.761849 105.15802 107.18136 101.82994 112.78906 92.117188 C 118.3963 82.404167 115.06823 69.984653 105.35547 64.376953 C 105.09492 64.231181 104.83118 64.091173 104.56445 63.957031 C 104.82373 63.830998 105.0803 63.699458 105.33398 63.5625 C 115.0472 57.954078 118.37452 45.533258 112.76562 35.820312 C 107.15793 26.107558 94.738411 22.779483 85.025391 28.386719 C 84.768658 28.539961 84.515341 28.698853 84.265625 28.863281 C 84.286072 28.575858 84.300397 28.288033 84.308594 28 C 84.309003 16.783704 75.216296 7.6909975 64 7.6914062 z M 64 43.980469 A 20.019171 20.019171 0 0 1 84.019531 64 A 20.019171 20.019171 0 0 1 64 84.019531 A 20.019171 20.019171 0 0 1 43.980469 64 A 20.019171 20.019171 0 0 1 64 43.980469 z "
     id="circle2156" />
</svg>
